X:1
T:The Godfather Waltz
T:The Godfather Waltz
T:Main Theme
T:Nina Rota
T:Florian Flügge
C:Nina Rota
Z:Florian Flügge
%%score { 1 | 2 }
L:1/8
Q:1/4=100
M:3/4
K:Eb
V:1 treble nm="Piano" snm="Pno."
V:2 treble 
V:1
 c4 =Bc | _d4 c2 | c2 A4- | A6 | c4 =Bc | _d4 c2 | c2 G4- | G6 | c4 =Bc | e4 c2 | _c4 d2 | c6 | %12
 A2 G2 A2 | c4 _c2 | G6- | G6 | d4 _d=d | e4 d2 | d2 B4- | B6 | d4 _d=d | e4 d2 | d2 =A4- | A6 | %24
 d4 _d=d | f4 d2 | _d4 _f2 | d6 | B2 =A2 B2 | d4 _d2 | =A6- | A6 | =A6- | A2!<(! _c_d =d_f!<)! | %34
 f6- | f6 | f4 _fd |!>(! _d4 =d2!>)! |!mp! d6- | d6 |:!f!{/e} d2 _d2 =d2 |{/e} d2 _d2 =d2 | %42
{/e} d2 _d2 =d2 | e2 d2 c2 | B2 =A2 G2 | _G4 =G2 |1 =A6 :|2 G6- ||!<(! G6!<)! |!f! d4 _d=d | %50
 e4 (3ded | d2 B4- | B6 | d4 _d=d | e4 (3ded | d2 =A4- | A6 | d4 _d=d | f4 (3ded | _d4 (3_fgf | %60
 d6 | B2 =A2 B2 | d4 (3_dcd | =A6- | A6 | =A6- | A2 _c_d =d_f |"^rit.\n"[Q:1/4=80] f6- | f6 | %69
!>(! f4 _fd!>)! | _d4 =d2 | d6- | d6 | z6 |] %74
V:2
!mp! C4 =B,C | _D4 C2 | C2 A,4- | A,6 | C4 =B,C | _D4 C2 | C2 G,4- | G,6 | C4 =B,C | E4 C2 | %10
 _C4 D2 | C6 | A,2 G,2 A,2 | C4 _C2 | G,6- | G,6 |[K:bass]!mf! D,2 [=A,DF]2 [A,DF]2 | %17
 D,2 [=A,DF]2 [A,DF]2 | !>!G,,2 [G,B,D]2 [G,B,D]2 | !>!G,,2 [G,B,D]2 [G,B,D]2 | %20
 G,,2 [G,B,D]2 [G,B,D]2 | G,,2 [G,B,D]2 [G,B,D]2 | !>!D,2 [=A,DF]2 [A,DF]2 | %23
 !>!D,2 [=A,DF]2 [A,DF]2 | D,2 [=A,DF]2 [A,DF]2 | D,2 [=A,DF]2 [A,DF]2 | %26
 =A,,2 [=E,=A,^C]2 [E,A,C]2 | D,2 [=A,DF]2 [A,DF]2 | G,,2 [G,B,D]2 [G,B,D]2 | %29
 G,,2 [G,B,D]2 [G,B,D]2 | D,2 [=A,DF]2 [A,DF]2 | D,2 [=A,DF]2 [A,DF]2 | %32
 !>!=A,,2 [=E,=A,^C]2 [E,A,C]2 | !>!=A,,2 [=E,=A,^C]2 [E,A,C]2 |!f! !>!D,2 [=A,DF]2 [A,DF]2 | %35
 !>!B,,2 [B,DF]2 [B,DF]2 | G,,2 [G,B,D]2 [G,B,D]2 | =A,,2 [=E,=A,^C]2 [E,A,C]2 | %38
 D,2 [=A,DF]2 [A,DF]2 | D,2 [=A,DF]2 [A,DF]2 |: G,,2 [G,B,D]2 [G,B,D]2 | G,,2 [G,B,D]2 [G,B,D]2 | %42
 D,2 [=A,DF]2 [A,DF]2 | D,2 [=A,DF]2 [A,DF]2 | G,,2 [G,B,D]2 [G,B,D]2 | G,,2 [G,B,D]2 [G,B,D]2 |1 %46
 D,2 [=A,D^F]2 [A,DF]2 :|2 G,,2 [G,B,D]2 [G,B,D]2 || G,,2 [G,B,D]2 [G,B,D]2 | %49
 D,2 [=A,DF]2 [A,DF]2 | D,2 [=A,DF]2 [A,DF]2 | G,,D B,G, B,2 | G,,D B,G, B,2 | %53
 G,,2 [G,B,D]2 [G,B,D]2 | G,,2 [G,B,D]2 [G,B,D]2 | B,,F D=A, D2 | D,F D=A, D2 | %57
 D,2 [=A,DF]2 [A,DF]2 | D,2 [=A,DF]2 [A,DF]2 | =A,,2 [=E,=A,^C]2 [E,A,C]2 | D,2 [=A,DF]2 [A,DF]2 | %61
 G,,2 [G,B,D]2 [G,B,D]2 | G,,2 [G,B,D]2 [G,B,D]2 | D,2 [=A,DF]2 [A,DF]2 | D,2 [=A,DF]2 [A,DF]2 | %65
 =A,,2 [=E,=A,^C]2 [E,A,C]2 | =A,,2 [=E,=A,^C]2 [E,A,C]2 | D,2 [=A,DF]2 [A,DF]2 | %68
 B,,2 [B,DF]2 [B,DF]2 | G,,2 [G,B,D]2 [G,B,D]2 | =A,,2 [=E,=A,^C]2 [E,A,C]2 | D2 =A,2 F,2 | %72
 D,2 =A,,2 F,,2 | !arpeggio![D,F,=A,D]6 |] %74

